dist/img/camera.svg

<svg width="44" height="38" viewBox="0 0 44 38" fill="none" xmlns="http://www.w3.org/2000/svg">
<path d="M41.1614 37.4516H5.67758C4.11203 37.4516 2.83887 36.1784 2.83887 34.6129V13.5205C2.83887 11.835 4.03822 10.3717 5.69177 10.041L13.484 8.48253V4.09673C13.484 2.14015 15.0758 0.54834 17.0324 0.54834H29.8066C31.7632 0.54834 33.355 2.14015 33.355 4.09673V8.48253L41.1473 10.041C42.8008 10.3717 44.0002 11.835 44.0002 13.5205V34.6129C44.0002 36.1784 42.727 37.4516 41.1614 37.4516ZM17.0324 1.96769C15.8586 1.96769 14.9034 2.92292 14.9034 4.09673V9.6464L5.96996 11.4327C4.97854 11.6314 4.25822 12.5092 4.25822 13.5205V34.6129C4.25822 35.3956 4.8948 36.0322 5.67758 36.0322H41.1614C41.9442 36.0322 42.5808 35.3956 42.5808 34.6129V13.5205C42.5808 12.5092 41.8605 11.6314 40.8691 11.4327L31.9356 9.6464V4.09673C31.9356 2.92292 30.9804 1.96769 29.8066 1.96769H17.0324Z" fill="white"/>
<path d="M30.5158 11.9033H16.3223V4.80656C16.3223 4.02379 16.9588 3.38721 17.7416 3.38721H29.0965C29.8792 3.38721 30.5158 4.02379 30.5158 4.80656V11.9033ZM17.7416 10.484H29.0965V4.80656H17.7416V10.484Z" fill="white"/>
<path d="M27.6773 11.1936H26.2579V7.64519H20.5805V11.1936H19.1611V6.22583H27.6773V11.1936Z" fill="white"/>
<path d="M32.6458 33.1936H11.3555V16.1614H32.6458V33.1936Z" fill="#E12025"/>
<path d="M37.6128 26.8065C35.6563 26.8065 34.0645 25.2147 34.0645 23.2581C34.0645 21.3015 35.6563 19.7097 37.6128 19.7097C39.5694 19.7097 41.1612 21.3015 41.1612 23.2581C41.1612 25.2147 39.5694 26.8065 37.6128 26.8065ZM37.6128 21.1291C36.439 21.1291 35.4838 22.0843 35.4838 23.2581C35.4838 24.4319 36.439 25.3871 37.6128 25.3871C38.7866 25.3871 39.7419 24.4319 39.7419 23.2581C39.7419 22.0843 38.7866 21.1291 37.6128 21.1291Z" fill="white"/>
<path d="M25.0452 28.7243L26.0488 27.7207L18.9532 20.6251L17.9496 21.6288L25.0452 28.7243Z" fill="white"/>
<path d="M25.0462 24.469L26.0498 23.4653L23.211 20.6266L22.2074 21.6302L25.0462 24.469Z" fill="white"/>
<path d="M20.7874 28.7265L21.791 27.7229L18.9523 24.8841L17.9486 25.8878L20.7874 28.7265Z" fill="white"/>
<path d="M7.80677 21.1292C6.63296 21.1292 5.67773 20.1739 5.67773 19.0001C5.67773 17.8263 6.63296 16.8711 7.80677 16.8711C8.98057 16.8711 9.9358 17.8263 9.9358 19.0001C9.9358 20.1739 8.98057 21.1292 7.80677 21.1292ZM7.80677 18.2904C7.41502 18.2904 7.09709 18.6091 7.09709 19.0001C7.09709 19.3912 7.41502 19.7098 7.80677 19.7098C8.19851 19.7098 8.51644 19.3912 8.51644 19.0001C8.51644 18.6091 8.19851 18.2904 7.80677 18.2904Z" fill="white"/>
<path d="M7.80677 26.8064C6.63296 26.8064 5.67773 25.8512 5.67773 24.6774C5.67773 23.5036 6.63296 22.5483 7.80677 22.5483C8.98057 22.5483 9.9358 23.5036 9.9358 24.6774C9.9358 25.8512 8.98057 26.8064 7.80677 26.8064ZM7.80677 23.9677C7.41502 23.9677 7.09709 24.2863 7.09709 24.6774C7.09709 25.0684 7.41502 25.3871 7.80677 25.3871C8.19851 25.3871 8.51644 25.0684 8.51644 24.6774C8.51644 24.2863 8.19851 23.9677 7.80677 23.9677Z" fill="white"/>
<path d="M7.80677 32.4839C6.63296 32.4839 5.67773 31.5287 5.67773 30.3549C5.67773 29.1811 6.63296 28.2258 7.80677 28.2258C8.98057 28.2258 9.9358 29.1811 9.9358 30.3549C9.9358 31.5287 8.98057 32.4839 7.80677 32.4839ZM7.80677 29.6452C7.41502 29.6452 7.09709 29.9638 7.09709 30.3549C7.09709 30.7459 7.41502 31.0645 7.80677 31.0645C8.19851 31.0645 8.51644 30.7459 8.51644 30.3549C8.51644 29.9638 8.19851 29.6452 7.80677 29.6452Z" fill="white"/>
<path d="M36.1935 18.2903C35.0197 18.2903 34.0645 17.3351 34.0645 16.1613C34.0645 14.9875 35.0197 14.0322 36.1935 14.0322C37.3673 14.0322 38.3225 14.9875 38.3225 16.1613C38.3225 17.3351 37.3673 18.2903 36.1935 18.2903ZM36.1935 15.4516C35.8017 15.4516 35.4838 15.7702 35.4838 16.1613C35.4838 16.5523 35.8017 16.8709 36.1935 16.8709C36.5852 16.8709 36.9032 16.5523 36.9032 16.1613C36.9032 15.7702 36.5852 15.4516 36.1935 15.4516Z" fill="white"/>
<path d="M41.1612 33.1936H34.0645V28.9355H41.1612V33.1936ZM35.4838 31.7743H39.7419V30.3549H35.4838V31.7743Z" fill="white"/>
<path d="M38.3227 29.645H36.9033V32.4837H38.3227V29.645Z" fill="white"/>
<path d="M3.54839 33.1936H2.12903C0.955226 33.1936 0 32.2384 0 31.0646V22.5485C0 21.3747 0.955226 20.4194 2.12903 20.4194H3.54839V21.8388H2.12903C1.73729 21.8388 1.41935 22.1574 1.41935 22.5485V31.0646C1.41935 31.4556 1.73729 31.7743 2.12903 31.7743H3.54839V33.1936Z" fill="white"/>
<path d="M6.38713 10.4839H4.96777V6.93555H12.0645V9.06458H10.6452V8.3549H6.38713V10.4839Z" fill="white"/>
<path d="M36.1938 7.64502H34.7744V9.06437H36.1938V7.64502Z" fill="white"/>
<path d="M39.0326 8.35474H37.6133V9.77409H39.0326V8.35474Z" fill="white"/>
<path d="M38.3227 22.5483H36.9033V23.9677H38.3227V22.5483Z" fill="white"/>
<path d="M33.3549 12.6128H31.9355V14.0321H33.3549V12.6128Z" fill="white"/>
<path d="M12.0639 12.6128H10.6445V14.0321H12.0639V12.6128Z" fill="white"/>
<path d="M9.226 12.6128H7.80664V14.0321H9.226V12.6128Z" fill="white"/>
</svg>

<svg xmlns="http://www.w3.org/2000/svg" fill="none" viewBox="0 0 44 38"><path fill="#fff" d="M41.161 37.452H5.678a2.842 2.842 0 01-2.84-2.84V13.52c0-1.685 1.2-3.148 2.854-3.479l7.792-1.558V4.097A3.552 3.552 0 0117.032.548h12.775a3.552 3.552 0 013.548 3.549v4.386l7.792 1.558A3.558 3.558 0 0144 13.521v21.092a2.842 2.842 0 01-2.839 2.839zM17.032 1.968a2.132 2.132 0 00-2.129 2.129v5.55L5.97 11.432a2.136 2.136 0 00-1.712 2.088v21.092c0 .783.637 1.42 1.42 1.42H41.16a1.42 1.42 0 001.42-1.42V13.52c0-1.01-.72-1.889-1.712-2.087l-8.933-1.787v-5.55a2.132 2.132 0 00-2.13-2.128H17.033z"/><path fill="#fff" d="M30.516 11.903H16.322V4.807c0-.783.637-1.42 1.42-1.42h11.354c.783 0 1.42.637 1.42 1.42v7.096zm-12.774-1.419h11.354V4.807H17.742v5.677z"/><path fill="#fff" d="M27.677 11.194h-1.42V7.645H20.58v3.549h-1.419V6.226h8.516v4.968z"/><path fill="#E12025" d="M32.646 33.194h-21.29V16.16h21.29v17.033z"/><path fill="#fff" d="M37.613 26.806a3.552 3.552 0 01-3.548-3.548 3.552 3.552 0 013.548-3.548 3.552 3.552 0 013.548 3.548 3.552 3.552 0 01-3.548 3.549zm0-5.677a2.132 2.132 0 00-2.13 2.13c0 1.173.956 2.128 2.13 2.128s2.129-.955 2.129-2.129a2.132 2.132 0 00-2.13-2.129zM25.045 28.724l1.004-1.003-7.096-7.096-1.003 1.004 7.095 7.095zM25.046 24.469l1.004-1.004-2.839-2.838-1.004 1.003 2.84 2.839zM20.787 28.727l1.004-1.004-2.839-2.839-1.003 1.004 2.838 2.838zM7.807 21.13A2.132 2.132 0 015.677 19c0-1.174.956-2.129 2.13-2.129s2.129.955 2.129 2.13c0 1.173-.955 2.128-2.13 2.128zm0-2.84a.71.71 0 10.001 1.421.71.71 0 00-.001-1.42zM7.807 26.806a2.132 2.132 0 01-2.13-2.129c0-1.173.956-2.129 2.13-2.129s2.129.956 2.129 2.13a2.132 2.132 0 01-2.13 2.128zm0-2.838a.71.71 0 10.001 1.42.71.71 0 00-.001-1.42zM7.807 32.484a2.132 2.132 0 01-2.13-2.13c0-1.173.956-2.128 2.13-2.128s2.129.955 2.129 2.129a2.132 2.132 0 01-2.13 2.129zm0-2.839a.71.71 0 10.001 1.42.71.71 0 00-.001-1.42zM36.194 18.29a2.132 2.132 0 01-2.13-2.129c0-1.174.956-2.129 2.13-2.129 1.173 0 2.128.956 2.128 2.13a2.132 2.132 0 01-2.129 2.128zm0-2.838a.71.71 0 100 1.42.71.71 0 000-1.42zM41.161 33.194h-7.096v-4.259h7.096v4.259zm-5.677-1.42h4.258v-1.42h-4.258v1.42z"/><path fill="#fff" d="M38.323 29.645h-1.42v2.839h1.42v-2.839zM3.548 33.194H2.13A2.132 2.132 0 010 31.064V22.55c0-1.174.955-2.13 2.129-2.13h1.42v1.42h-1.42a.71.71 0 00-.71.71v8.516c0 .39.318.71.71.71h1.42v1.419zM6.387 10.484h-1.42V6.936h7.098v2.129h-1.42v-.71H6.387v2.129zM36.194 7.645h-1.42v1.42h1.42v-1.42zM39.033 8.355h-1.42v1.42h1.42v-1.42zM38.323 22.548h-1.42v1.42h1.42v-1.42zM33.355 12.613h-1.42v1.42h1.42v-1.42zM12.064 12.613h-1.42v1.42h1.42v-1.42zM9.226 12.613h-1.42v1.42h1.42v-1.42z"/></svg>
